!!!Genre:	Skotshne
!!!Mode:	Altered Dorian
!!!Listening/dance:	dance
!!!:	*G:
!!!One_Mode:	no
**kern
*part1
*staff1
*clefG2
*k[b-]
*g:dor
*M2/4
=1-
*>A
8dL
8g
8b-
8ddJ
=2
8cc#XL
8b-J
4dd
=3
16cc#XLL
16dd
16ee
16ffJJ
16ggLL
16ff
16ee
16ddJJ
=4
16cc#XLL
16dd
16ee
16ddJJ
16cc#LL
16b-
16a
16gJJ
=5
8dL
8g
8b-
8ddJ
=6
8cc#XL
8b-J
4dd
=7
16cc#XLL
16dd
16ee
16ddJJ
16cc#LL
16b-
16a
16b-JJ
=8
4g
4g
=9:|!|:
*>B
*>B
[4gg
16ggLL]
16ff
16aa
16ggJJ
=10
[4ff
16ffLL]
16ee
16gg
16ffJJ
=11
[4ee
16eeLL]
16dd
16ff
16eeJJ
=12
2dd
=13
8cc#XL
(>8qee/
8ddJ)
8cc#L
(>8qee/
8ddJ)
=14
8cc#XL
(>8qee/
8ddJ)
16cc#XLL
16b-
16a
16b-JJ
=15
(>16cc#XLL
16eeJJ)
4dd
8dd
=16
2gg
=17:|!
2g
*>bM
*g:dor
=24
16cc#XLL
16dd
16ee
16ddJJ
16cc#LL
16b-X
16a
16b-JJ
=25
4g
4g
=26:|!|:
*>D
*k[b-]
2gg
=27
(>8qff#X/
2gg)
=28
(>8qff#X/
4gg)
(>8qff#/
4gg)
=29
(>8qff#X/
4gg)
(>8qff#/
4gg)
=30
16ggLL
16aa
16bb-
16aaJJ
16ggLL
16ffn
16ee
16ddJJ
=31
16eeLL
16ff
16gg
16ffJJ
16eeLL
16dd
16cc#X
16b-JJ
=32
16cc#XLL
16dd
16ee
16ddJJ
16cc#LL
16b-
16a
16gJJ
=33
(>16cc#XLL
16eeJJ)
4dd
8dd
=34
16ggLL
16aa
16bb-
16aaJJ
16ggLL
16ff
16ee
16ddJJ
=35
16eeLL
16ff
16gg
16ffJJ
16eeLL
16dd
16cc#X
16b-JJ
=36
16cc#XLL
16dd
16ee
16ddJJ
16cc#LL
16b-
16a
16b-JJ
=37
2g
=:|!
*-
